X:1
T:Donald MacGillavry
M:3/4
L:1/4
K:G
E/2-F/2 G E|E/2-F/2 G E| E2 B| B- G E|E/2-F/2 G E|E/2-F/2 G E| D2 A|\
 A- F D|E/2-F/2 G E|E/2-F/2 G E| E2 B| B G B| c B A| d- c B| D D A|\
 A F D|B/2-c/2 d E| B2 E|B/2-c/2 d E| B G E|B/2-c/2 d E| B2 E| D D A|\
 A F D|B/2-c/2 d E| B2 E| B d c| B G B| c B A| d c B| D D A| A F D|\
